X:36
T:We Won’t Go Home Till Morning. WHG.35a
M:6/8
L:1/8
K:D
d|f2f f2e|g3 f>gf|e2e e>de|f3 d2d|
f2f f2e|g3 f2a|f2d ede|d2d d2:|
a|a2f b2b|a3- a2a|a2f b2b|a3- a2d|\
f2f f2e|g3 f>gf|
e2e e>de|f3 d2d|\
f2f f2e|g3 f2a|f2d e>de|(d3 e2)|]

